X:1
T:Title
%%score { ( 1 3 ) | ( 2 4 ) }
L:1/8
Q:1/4=100
M:4/4
K:Ab
V:1 treble nm="Grand Piano"
V:3 treble 
V:2 bass 
V:4 bass 
V:1
 [CE]2 [A,C][B,D] [CE]2 [CA]2 | [Ec]2 [CA]2 [CE]4 | D2 B2 C2 [CA]2 | z2 .A2 z4 | %4
w: Mrs.~Joseph~F.~Knapp * * * *||||
 E2 CD [E,CE]2 [CA]2 | [Ec]2 [CA]2 [CE]4 | [B,E]2 [EG]2 [=DG]3 [DF] | E6 z2 | %8
w: ||||
 [CA]>[CA] [CA]>[CA] [Fd]2 [Fd]2 | [Ec]4 A4 | [CA]>[CA] [CA]>[CA] [Fd]2 [Fd]2 | c4 B4 | %12
w: ||||
 c2 e2 A2 c2 | F2 A2 E4 | F2 F2 [Fd]2 [FB]2 | A4 G4 | c2 e2 A2 c2 | F2 B2 [Fd]4 | E2 Ac e2 c2 | %19
w: |||||||
 [GB]2 [Ge]2 A4 | e3 [Ec] [CA]2 [DB]2 | c8 | e3 [Ec] [CA]2 [Ec]2 | B8 | c3 c d2 c2 | f2 e2 d2 c2 | %26
w: |||||||
[M:5/4] [Fc]3 [FB] [Ge]3 [Ge]3 |[M:4/4] [EA]8 |] %28
w: ||
V:2
 [A,,A,]2 [A,,E,]2 [A,,E,]2 [A,,E,]2 | [A,,A,]2 [A,,E,]2 [A,,A,]4 | %2
 [E,G,]2 [E,G,D]2 [A,,E,A,]2 [A,,A,]2 | z2 .F,2 z4 | [A,C]2 A,B, A,,2 [A,,E,]2 | %5
 [A,,A,]2 [A,,A,]2 [A,,A,]4 | [B,,G,]2 [B,,B,]2 [B,,B,]3 [B,,A,] | [E,G,]6 z2 | %8
 [A,,E,]>[A,,E,] [A,,E,]>[A,,E,] [A,,A,]2 [A,,A,]2 | A,4 [E,C]4 | %10
 [A,,A,]>[A,,E,] [A,,E,]>[A,,E,] [A,,A,]2 [A,,A,]2 | [E,E]4- [E,G,E]4 | C2 E2 A,2 C2 | %13
 F,2 A,2 E,4 | [D,A,D]2 [D,A,D]2 [D,B,]2 [D,D]2 | C4 B,4 | C2 E2 A,2 C2 | %17
 [D,A,D]2 [D,A,D]2 [B,,B,]4 | z2 .C2 z4 | [E,D]2 [E,D]2 [A,C]4 | %20
 [A,,CE]3 [A,,A,] [A,,A,]2 [E,G,]2 | [A,,E,]2 [A,,E,]2 [A,,E,]4 | %22
 [A,,CE]3 [A,,A,] [A,,E,]2 [A,,A,]2 | [E,G,E]2 [E,G,]2 [E,G,]4 | [A,E]3 [A,EA] [A,FA]2 [A,EA]2 | %25
 [DA]2 [CEA]2[K:bass] [G,B,E]2 [A,E]2 |[M:5/4] [D,A,]3 [D,B,] [E,B,]3 [E,D]3 |[M:4/4] [A,C]8 |] %28
V:3
 x8 | x8 | x8 | [B,G]2 =D-[DF] B4 | x8 | x8 | x8 | x8 | x8 | x8 | x8 | x8 | x8 | x8 | x8 | x8 | %16
 x8 | x8 | x8 | x8 | x8 | E2 E2 E4 | x8 | z2 E2 E4 | x8 | x8 |[M:5/4] x10 |[M:4/4] x8 |] %28
V:4
 x8 | x8 | x8 | [B,,E,]2 B,,-[B,,A,] [E,G,D]4 | z2 [A,,E,]2 z4 | x8 | x8 | x8 | x8 | A,,8 | x8 | %11
 A,4 z4 | x8 | x8 | x8 | [E,E]8 | x8 | x8 | [E,A,C]2 [E,E]-[E,A,E] [E,CE]2 [E,E]2 | x8 | x8 | x8 | %22
 x8 | x8 | x8 | x4[K:bass] x4 |[M:5/4] x10 |[M:4/4] x8 |] %28

